X:81
T:Pièces de viole - Rondeau
C:Marais, M.
M:2/4
L:1/16
Q:1/4=104
K:Gmin
|:D4 GABC|D4 EFGA|BcBA GFED|G8|
DEFG ABcB|AGFE DEFG|ABcA BAGF|G8:|

